X:1
T:Title
%%score { ( 1 4 ) | ( 2 3 ) }
L:1/8
M:3/4
K:G
V:1 treble nm="Grand Piano"
V:4 treble 
V:2 treble 
V:3 treble 
V:1
 z2 z2[Q:1/4=92] D2 | B>A c2 B2 | [FA]>[FB] G2 D2 | E3 [DG] [^CF][CG] |[M:2/4] [CA]4 | %5
[M:1/4] [EFc]2 |[M:3/4] B>_B =B2 d2 | [Ec]>[EB] [Ec]2 [CEA]2 | [B,DG]3 [A,DF] [DFB]>[CFA] | %9
[M:2/4] [B,DG]4 |[M:1/4] [=FB]2 |[M:3/4] [Ec]>[Ec] [Ec]2 [^DG]2 | [DB]>[DB] [DB]2 [DB]2 | %13
 [DA]3 [Fd] [E^c][Ge] |[M:5/8] d-d- d3 |[M:1/4] [EFc]2 |[M:3/4] [DGB]>[CFA] [B,EG]2 [A,^DF]2 | %17
[M:7/8] [G,CE]>[G,CE] [Ec]3 [Ge]2 |[M:3/4] [Gd]3 G G>F |[M:2/4] [B,G]4 |] %20
V:2
 z2 z2 [G,B,]2 | [G,DG]>[G,CG] [G,EG]2 [G,DG]2 | [D,C]>[D,D] [G,B,D]2 [G,B,]2 | %3
 [C,G,C]3 [B,,G,] [A,,A,][A,,G,] |[M:2/4] G,2 z2 |[M:1/4] D,2 | %6
[M:3/4][K:treble] [G,D=F]>[G,^CE] [G,DF]2 [G,B,F]2 | [C,G,]>[C,^G,] [C,A,]2 C,2 | D,3 D, D,>D, | %9
[M:2/4] G,4 |[M:1/4] G,2 |[M:3/4] [C,G,]>[C,G,] [C,G,]2 [C,A,]2 | %12
 [G,,G,]>[G,,G,] [G,,G,]2 [^G,,=F,]2 | [A,,F,]3 [A,,A,] [A,,A,][A,,A,] |[M:5/8] A, z z z2 | %15
[M:1/4] D,2 |[M:3/4] G,>D, E,2 B,,2 |[M:7/8] C,>C, [C,G,]3 [^C,A,]2 | %18
[M:3/4] [D,B,]3 [D,B,D] [D,A,C]>[D,A,C] |[M:2/4] [G,,G,]4 |] %20
V:3
 x6 | x6 | x6 | x6 |[M:2/4] D,2- [D,F,]2 |[M:1/4] x2 |[M:3/4][K:treble] x6 | x6 | x6 |[M:2/4] x4 | %10
[M:1/4] x2 |[M:3/4] x6 | x6 | x6 |[M:5/8] D,-[D,-B,] [D,C]3 |[M:1/4] x2 |[M:3/4] x6 |[M:7/8] x7 | %18
[M:3/4] x6 |[M:2/4] x4 |] %20
V:4
 x6 | x6 | x6 | x6 |[M:2/4] x4 |[M:1/4] x2 |[M:3/4] x6 | x6 | x6 |[M:2/4] x4 |[M:1/4] x2 | %11
[M:3/4] x6 | x6 | x6 |[M:5/8] FG A3 |[M:1/4] x2 |[M:3/4] x6 |[M:7/8] x7 |[M:3/4] x6 |[M:2/4] x4 |] %20

